novelwriter/assets/icons/typicons_dark/typ_arrow-maximise.svg

<?xml version="1.0" encoding="UTF-8"?>
<svg width="24" height="24" version="1.2" viewBox="0 0 24 24" xmlns="http://www.w3.org/2000/svg">
 <path d="m15.75 2c-0.69125 0-1.25 0.56-1.25 1.25s0.55875 1.25 1.25 1.25h1.9825l-4.1162 4.1162c-0.48875 0.48875-0.48875 1.2788 0 1.7675 0.24375 0.24375 0.56375 0.36625 0.88375 0.36625s0.64-0.1225 0.88375-0.36625l4.1162-4.1162v1.9825c0 0.69 0.55875 1.25 1.25 1.25s1.25-0.56 1.25-1.25v-6.25zm-7.1338 11.616-4.1162 4.1162v-1.9825c0-0.69-0.55875-1.25-1.25-1.25s-1.25 0.56-1.25 1.25v6.2488h1.245l5.005 0.00125c0.69 0 1.25-0.56 1.25-1.25s-0.55875-1.25-1.25-1.25h-1.9825l4.1162-4.115c0.48875-0.48875 0.48875-1.2788 0-1.7675s-1.2788-0.49-1.7675-0.0012zm-2.8662-1.6162c0.69 0 1.25-0.56 1.25-1.25v-3.75h3.75c0.69125 0 1.25-0.56 1.25-1.25s-0.55875-1.25-1.25-1.25h-6.2488l-0.00125 6.25c0 0.69 0.55875 1.25 1.25 1.25zm12.5 0c-0.69125 0-1.25 0.56-1.25 1.25v3.75h-3.75c-0.69125 0-1.25 0.56-1.25 1.25s0.55875 1.25 1.25 1.25h6.25v-6.25c0-0.69-0.55875-1.25-1.25-1.25z" fill="#69c" stroke-width="1.25"/>
</svg>

<?xml version="1.0" encoding="UTF-8" standalone="no"?>
<svg
   xmlns:dc="http://purl.org/dc/elements/1.1/"
   xmlns:cc="http://creativecommons.org/ns#"
   xmlns:rdf="http://www.w3.org/1999/02/22-rdf-syntax-ns#"
   xmlns:svg="http://www.w3.org/2000/svg"
   xmlns="http://www.w3.org/2000/svg"
   id="svg7486"
   viewBox="0 0 24 24"
   height="24"
   width="24"
   version="1.2">
  <metadata
     id="metadata7492">
    <rdf:RDF>
      <cc:Work
         rdf:about="">
        <dc:format>image/svg+xml</dc:format>
        <dc:type
           rdf:resource="http://purl.org/dc/dcmitype/StillImage" />
        <dc:title></dc:title>
      </cc:Work>
    </rdf:RDF>
  </metadata>
  <defs
     id="defs7490" />
  <path
     style="stroke-width:1.25;fill:#6699cc;fill-opacity:1"
     id="path7484"
     d="m 15.75,2 c -0.69125,0 -1.25,0.56 -1.25,1.25 0,0.69 0.55875,1.25 1.25,1.25 h 1.9825 l -4.11625,4.11625 c -0.48875,0.48875 -0.48875,1.27875 0,1.7675 C 13.86,10.6275 14.18,10.75 14.5,10.75 c 0.32,0 0.64,-0.1225 0.88375,-0.36625 L 19.5,6.2675 V 8.25 c 0,0.69 0.55875,1.25 1.25,1.25 C 21.44125,9.5 22,8.94 22,8.25 V 2 Z M 8.61625,13.61625 4.5,17.7325 V 15.75 C 4.5,15.06 3.94125,14.5 3.25,14.5 2.55875,14.5 2,15.06 2,15.75 v 6.24875 H 3.245 L 8.25,22 C 8.94,22 9.5,21.44 9.5,20.75 9.5,20.06 8.94125,19.5 8.25,19.5 H 6.2675 l 4.11625,-4.115 c 0.48875,-0.48875 0.48875,-1.27875 0,-1.7675 C 9.895,13.12875 9.105,13.1275 8.61625,13.6163 Z M 5.75,12 C 6.44,12 7,11.44 7,10.75 V 7 h 3.75 C 11.44125,7 12,6.44 12,5.75 12,5.06 11.44125,4.5 10.75,4.5 H 4.50125 L 4.5,10.75 C 4.5,11.44 5.05875,12 5.75,12 Z m 12.5,0 C 17.55875,12 17,12.56 17,13.25 V 17 H 13.25 C 12.55875,17 12,17.56 12,18.25 c 0,0.69 0.55875,1.25 1.25,1.25 H 19.5 V 13.25 C 19.5,12.56 18.94125,12 18.25,12 Z" />
</svg>
